X: 84
T: Hot House
T: What is this thing called love
C: Charlie Parker
M: 4/4
L: 1/8
K: C
P: A
_B- || "Gm7b5"B2A_A G2_GF | "C7"EF_GB _B2z_A- | "Fm"A2G_G F2E_E | D^DE_A E2z2 |
"Dm7b5"zG_A_B (3ABA G=B | "G7"z_B z_A GF_E_D | "C"C_GF2- F3=E | zCz2 z4 ||
P: A
"Gm7b7"zG_A_B cB^FG | "C7"(3_B=d=a ^fd z4 | "Fm" zFG_A _BA=EF | (3_Acg =ecz2 |
"Dm7b5"GGFG _B_AGF | "G7"=BB=AB dc_B_A | "C"G2 (3cdB c2 (3g_a^f g2 | z4 z3F ||
P: B
"Cm7"zC zD _EFG_B | d=B_G_E d2(3BGE | A^FGA c/d/c/A/ _Bc | _e/f/e/^c/ dg f2z |
"Ab7"z_G- (3GAd fdAG | f2dAz4 | "G7"zF- (3F_A^c ecAF | e2^c_A z3_B- ||
P: A
"Gm7b5"B2A_A G2_GF | "C7"EF_GB _B2z_A- | "Fm"A2G_G F2E_E | D^DE_A E2z2 |
"Dm7b5"zG_A_B (3ABA G=B | "G7"z_B z_A GF_E_D | "C"C_GF2- F3=E | zCz2 z4 |]
